bridge_ui/src/icons/Twitter.svg

<svg width="22" height="18" viewBox="0 0 22 18" fill="none" xmlns="http://www.w3.org/2000/svg">
<path fill-rule="evenodd" clip-rule="evenodd" d="M21.8361 2.09102C21.0578 2.4457 20.2199 2.68554 19.3409 2.79271C20.2385 2.24157 20.9273 1.36765 21.2518 0.326603C20.4113 0.83692 19.4826 1.20818 18.4905 1.4072C17.6998 0.540936 16.5697 0 15.319 0C12.9207 0 10.975 1.99662 10.975 4.4589C10.975 4.80846 11.0123 5.14783 11.0869 5.47443C7.47527 5.28816 4.27389 3.51481 2.12928 0.813956C1.75506 1.47482 1.54122 2.24157 1.54122 3.05808C1.54122 4.60434 2.30831 5.96944 3.47448 6.76936C2.76334 6.74767 2.09199 6.54482 1.50517 6.21311V6.26797C1.50517 8.42916 3.00329 10.2319 4.99249 10.6401C4.62822 10.7447 4.24406 10.797 3.84746 10.797C3.56773 10.797 3.29421 10.7702 3.0294 10.7179C3.58265 12.4887 5.18644 13.7786 7.08862 13.813C5.60169 15.0097 3.72686 15.7229 1.69166 15.7229C1.34106 15.7229 0.994193 15.7025 0.654785 15.6616C2.5781 16.9247 4.8632 17.6634 7.31613 17.6634C15.3103 17.6634 19.6803 10.8698 19.6803 4.97687C19.6803 4.78295 19.6766 4.58903 19.6691 4.39893C20.5182 3.76997 21.2555 2.98536 21.8361 2.09102" fill="#FFFFFF"/>
</svg>

<svg width="22" height="18" fill="none" xmlns="http://www.w3.org/2000/svg"><path fill-rule="evenodd" clip-rule="evenodd" d="M21.836 2.091a8.483 8.483 0 0 1-2.495.702A4.449 4.449 0 0 0 21.25.327c-.84.51-1.768.881-2.76 1.08A4.284 4.284 0 0 0 15.319 0c-2.398 0-4.344 1.997-4.344 4.459 0 .35.037.689.112 1.015-3.612-.186-6.813-1.96-8.958-4.66a4.543 4.543 0 0 0-.588 2.244A4.49 4.49 0 0 0 3.474 6.77a4.264 4.264 0 0 1-1.969-.556v.055c0 2.161 1.498 3.964 3.487 4.372a4.141 4.141 0 0 1-1.145.157c-.28 0-.553-.027-.818-.08.554 1.772 2.157 3.062 4.06 3.096a8.577 8.577 0 0 1-6.434 1.849 12.093 12.093 0 0 0 6.661 2.001c7.994 0 12.364-6.793 12.364-12.686 0-.194-.003-.388-.01-.578a8.923 8.923 0 0 0 2.166-2.308" fill="#FFF"/></svg>
